src/assets/images/icons/eth-blocks.svg

<svg width="60" height="60" viewBox="0 0 60 60" fill="none" xmlns="http://www.w3.org/2000/svg">
<rect x="0.5" y="0.5" width="59" height="59" rx="9.5" fill="white"/>
<path d="M10.9946 27.5852C10.9946 27.9618 11.2999 28.2671 11.6764 28.2671H26.9037C27.2803 28.2671 27.5855 27.9618 27.5855 27.5852V12.358C27.5855 11.9814 27.2803 11.6761 26.9037 11.6761H11.6764C11.2999 11.6761 10.9946 11.9814 10.9946 12.358V27.5852ZM15.1424 16.5057C15.1424 16.1291 15.4476 15.8239 15.8242 15.8239H22.756C23.1326 15.8239 23.4378 16.1291 23.4378 16.5057V23.4375C23.4378 23.8141 23.1326 24.1193 22.756 24.1193H15.8242C15.4476 24.1193 15.1424 23.8141 15.1424 23.4375V16.5057Z" fill="url(#paint0_linear_311:48)"/>
<path d="M10.9946 48.3239C10.9946 48.7004 11.2999 49.0057 11.6764 49.0057H26.9037C27.2803 49.0057 27.5855 48.7004 27.5855 48.3239V33.0966C27.5855 32.7201 27.2803 32.4148 26.9037 32.4148H11.6764C11.2999 32.4148 10.9946 32.7201 10.9946 33.0966V48.3239ZM15.1424 37.2443C15.1424 36.8678 15.4476 36.5625 15.8242 36.5625H22.756C23.1326 36.5625 23.4378 36.8678 23.4378 37.2443V44.1762C23.4378 44.5527 23.1326 44.858 22.756 44.858H15.8242C15.4476 44.858 15.1424 44.5527 15.1424 44.1762V37.2443Z" fill="url(#paint1_linear_311:48)"/>
<path d="M32.4151 11.6761C32.0385 11.6761 31.7333 11.9814 31.7333 12.358V27.5852C31.7333 27.9618 32.0385 28.2671 32.4151 28.2671H47.6423C48.0189 28.2671 48.3242 27.9618 48.3242 27.5852V12.358C48.3242 11.9814 48.0189 11.6761 47.6423 11.6761H32.4151ZM44.1764 23.4375C44.1764 23.8141 43.8712 24.1193 43.4946 24.1193H36.5628C36.1862 24.1193 35.881 23.8141 35.881 23.4375V16.5057C35.881 16.1291 36.1862 15.8239 36.5628 15.8239H43.4946C43.8712 15.8239 44.1764 16.1291 44.1764 16.5057V23.4375Z" fill="url(#paint2_linear_311:48)"/>
<path d="M47.6423 44.858H44.8583C44.4817 44.858 44.1764 45.1632 44.1764 45.5398V48.3239C44.1764 48.7004 44.4817 49.0057 44.8583 49.0057H47.6423C48.0189 49.0057 48.3242 48.7004 48.3242 48.3239V45.5398C48.3242 45.1632 48.0189 44.858 47.6423 44.858Z" fill="url(#paint3_linear_311:48)"/>
<path d="M35.1992 32.4148H32.4151C32.0385 32.4148 31.7333 32.7201 31.7333 33.0966V35.8807C31.7333 36.2573 32.0385 36.5625 32.4151 36.5625H35.1992C35.5757 36.5625 35.881 36.2573 35.881 35.8807V33.0966C35.881 32.7201 35.5757 32.4148 35.1992 32.4148Z" fill="url(#paint4_linear_311:48)"/>
<path d="M39.3469 36.5625H36.5628C36.1863 36.5625 35.881 36.8678 35.881 37.2443V40.0284C35.881 40.405 36.1863 40.7102 36.5628 40.7102H39.3469C39.7235 40.7102 40.0287 40.405 40.0287 40.0284V37.2443C40.0287 36.8678 39.7235 36.5625 39.3469 36.5625Z" fill="url(#paint5_linear_311:48)"/>
<path d="M35.1992 40.7102H32.4151C32.0385 40.7102 31.7333 41.0155 31.7333 41.392V44.1761C31.7333 44.5527 32.0385 44.858 32.4151 44.858H35.1992C35.5757 44.858 35.881 44.5527 35.881 44.1761V41.392C35.881 41.0155 35.5757 40.7102 35.1992 40.7102Z" fill="url(#paint6_linear_311:48)"/>
<path d="M39.3469 44.858H36.5628C36.1863 44.858 35.881 45.1632 35.881 45.5398V48.3239C35.881 48.7004 36.1863 49.0057 36.5628 49.0057H39.3469C39.7235 49.0057 40.0287 48.7004 40.0287 48.3239V45.5398C40.0287 45.1632 39.7235 44.858 39.3469 44.858Z" fill="url(#paint7_linear_311:48)"/>
<path d="M43.4946 40.7102H40.7105C40.334 40.7102 40.0287 41.0155 40.0287 41.392V44.1761C40.0287 44.5527 40.334 44.858 40.7105 44.858H43.4946C43.8712 44.858 44.1764 44.5527 44.1764 44.1761V41.392C44.1764 41.0155 43.8712 40.7102 43.4946 40.7102Z" fill="url(#paint8_linear_311:48)"/>
<path d="M43.4946 32.4148H40.7105C40.334 32.4148 40.0287 32.7201 40.0287 33.0966V35.8807C40.0287 36.2573 40.334 36.5625 40.7105 36.5625H43.4946C43.8712 36.5625 44.1764 36.2573 44.1764 35.8807V33.0966C44.1764 32.7201 43.8712 32.4148 43.4946 32.4148Z" fill="url(#paint9_linear_311:48)"/>
<path d="M47.6423 36.5625H44.8583C44.4817 36.5625 44.1764 36.8678 44.1764 37.2443V40.0284C44.1764 40.405 44.4817 40.7102 44.8583 40.7102H47.6423C48.0189 40.7102 48.3242 40.405 48.3242 40.0284V37.2443C48.3242 36.8678 48.0189 36.5625 47.6423 36.5625Z" fill="url(#paint10_linear_311:48)"/>
<rect x="0.5" y="0.5" width="59" height="59" rx="9.5" stroke="#C3F0E9"/>
<defs>
<linearGradient id="paint0_linear_311:48" x1="30.0003" y1="1.02275" x2="29.3185" y2="59.6591" gradientUnits="userSpaceOnUse">
<stop offset="0.197917" stop-color="#2CD7BE"/>
<stop offset="0.651042" stop-color="#2878DB"/>
<stop offset="1" stop-color="#2400FF"/>
</linearGradient>
<linearGradient id="paint1_linear_311:48" x1="30.0003" y1="1.02275" x2="29.3185" y2="59.6591" gradientUnits="userSpaceOnUse">
<stop offset="0.197917" stop-color="#2CD7BE"/>
<stop offset="0.651042" stop-color="#2878DB"/>
<stop offset="1" stop-color="#2400FF"/>
</linearGradient>
<linearGradient id="paint2_linear_311:48" x1="30.0003" y1="1.02275" x2="29.3185" y2="59.6591" gradientUnits="userSpaceOnUse">
<stop offset="0.197917" stop-color="#2CD7BE"/>
<stop offset="0.651042" stop-color="#2878DB"/>
<stop offset="1" stop-color="#2400FF"/>
</linearGradient>
<linearGradient id="paint3_linear_311:48" x1="30.0003" y1="1.02275" x2="29.3185" y2="59.6591" gradientUnits="userSpaceOnUse">
<stop offset="0.197917" stop-color="#2CD7BE"/>
<stop offset="0.651042" stop-color="#2878DB"/>
<stop offset="1" stop-color="#2400FF"/>
</linearGradient>
<linearGradient id="paint4_linear_311:48" x1="30.0003" y1="1.02275" x2="29.3185" y2="59.6591" gradientUnits="userSpaceOnUse">
<stop offset="0.197917" stop-color="#2CD7BE"/>
<stop offset="0.651042" stop-color="#2878DB"/>
<stop offset="1" stop-color="#2400FF"/>
</linearGradient>
<linearGradient id="paint5_linear_311:48" x1="30.0003" y1="1.02275" x2="29.3185" y2="59.6591" gradientUnits="userSpaceOnUse">
<stop offset="0.197917" stop-color="#2CD7BE"/>
<stop offset="0.651042" stop-color="#2878DB"/>
<stop offset="1" stop-color="#2400FF"/>
</linearGradient>
<linearGradient id="paint6_linear_311:48" x1="30.0003" y1="1.02275" x2="29.3185" y2="59.6591" gradientUnits="userSpaceOnUse">
<stop offset="0.197917" stop-color="#2CD7BE"/>
<stop offset="0.651042" stop-color="#2878DB"/>
<stop offset="1" stop-color="#2400FF"/>
</linearGradient>
<linearGradient id="paint7_linear_311:48" x1="30.0003" y1="1.02275" x2="29.3185" y2="59.6591" gradientUnits="userSpaceOnUse">
<stop offset="0.197917" stop-color="#2CD7BE"/>
<stop offset="0.651042" stop-color="#2878DB"/>
<stop offset="1" stop-color="#2400FF"/>
</linearGradient>
<linearGradient id="paint8_linear_311:48" x1="30.0003" y1="1.02275" x2="29.3185" y2="59.6591" gradientUnits="userSpaceOnUse">
<stop offset="0.197917" stop-color="#2CD7BE"/>
<stop offset="0.651042" stop-color="#2878DB"/>
<stop offset="1" stop-color="#2400FF"/>
</linearGradient>
<linearGradient id="paint9_linear_311:48" x1="30.0003" y1="1.02275" x2="29.3185" y2="59.6591" gradientUnits="userSpaceOnUse">
<stop offset="0.197917" stop-color="#2CD7BE"/>
<stop offset="0.651042" stop-color="#2878DB"/>
<stop offset="1" stop-color="#2400FF"/>
</linearGradient>
<linearGradient id="paint10_linear_311:48" x1="30.0003" y1="1.02275" x2="29.3185" y2="59.6591" gradientUnits="userSpaceOnUse">
<stop offset="0.197917" stop-color="#2CD7BE"/>
<stop offset="0.651042" stop-color="#2878DB"/>
<stop offset="1" stop-color="#2400FF"/>
</linearGradient>
</defs>
</svg>

<?xml version="1.0" encoding="utf-8"?>
<!-- Generator: Adobe Illustrator 25.0.0, SVG Export Plug-In . SVG Version: 6.00 Build 0)  -->
<svg version="1.1" id="Layer_1" xmlns="http://www.w3.org/2000/svg" xmlns:xlink="http://www.w3.org/1999/xlink" x="0px" y="0px"
	 viewBox="0 0 60 60" style="enable-background:new 0 0 60 60;" xml:space="preserve">
<style type="text/css">
	.st0{fill:#FFFFFF;}
	.st1{fill:url(#SVGID_1_);}
	.st2{fill:url(#SVGID_2_);}
	.st3{fill:url(#SVGID_3_);}
	.st4{fill:url(#SVGID_4_);}
	.st5{fill:url(#SVGID_5_);}
	.st6{fill:url(#SVGID_6_);}
	.st7{fill:url(#SVGID_7_);}
	.st8{fill:url(#SVGID_8_);}
	.st9{fill:url(#SVGID_9_);}
	.st10{fill:url(#SVGID_10_);}
	.st11{fill:url(#SVGID_11_);}
	.st12{fill:none;stroke:#C3F0E9;}
</style>
<path class="st0" d="M10,0.5h40c5.2,0,9.5,4.3,9.5,9.5v40c0,5.2-4.3,9.5-9.5,9.5H10c-5.2,0-9.5-4.3-9.5-9.5V10
	C0.5,4.8,4.8,0.5,10,0.5z"/>
<linearGradient id="SVGID_1_" gradientUnits="userSpaceOnUse" x1="19.5118" y1="61.0992" x2="18.83" y2="2.4629" gradientTransform="matrix(1 0 0 -1 0 62)">
	<stop  offset="0.1979" style="stop-color:#2CD7BE"/>
	<stop  offset="0.651" style="stop-color:#2878DB"/>
	<stop  offset="1" style="stop-color:#2400FF"/>
</linearGradient>
<path class="st1" d="M11,27.6c0,0.4,0.3,0.7,0.7,0.7h15.2c0.4,0,0.7-0.3,0.7-0.7V12.4c0-0.4-0.3-0.7-0.7-0.7H11.7
	c-0.4,0-0.7,0.3-0.7,0.7V27.6z M15.1,16.5c0-0.4,0.3-0.7,0.7-0.7h6.9c0.4,0,0.7,0.3,0.7,0.7v6.9c0,0.4-0.3,0.7-0.7,0.7h-6.9
	c-0.4,0-0.7-0.3-0.7-0.7V16.5z"/>
<linearGradient id="SVGID_2_" gradientUnits="userSpaceOnUse" x1="19.7529" y1="61.0964" x2="19.0711" y2="2.4601" gradientTransform="matrix(1 0 0 -1 0 62)">
	<stop  offset="0.1979" style="stop-color:#2CD7BE"/>
	<stop  offset="0.651" style="stop-color:#2878DB"/>
	<stop  offset="1" style="stop-color:#2400FF"/>
</linearGradient>
<path class="st2" d="M11,48.3c0,0.4,0.3,0.7,0.7,0.7h15.2c0.4,0,0.7-0.3,0.7-0.7V33.1c0-0.4-0.3-0.7-0.7-0.7H11.7
	c-0.4,0-0.7,0.3-0.7,0.7V48.3z M15.1,37.2c0-0.4,0.3-0.7,0.7-0.7h6.9c0.4,0,0.7,0.3,0.7,0.7v6.9c0,0.4-0.3,0.7-0.7,0.7h-6.9
	c-0.4,0-0.7-0.3-0.7-0.7V37.2z"/>
<linearGradient id="SVGID_3_" gradientUnits="userSpaceOnUse" x1="40.2477" y1="60.8581" x2="39.5659" y2="2.2217" gradientTransform="matrix(1 0 0 -1 0 62)">
	<stop  offset="0.1979" style="stop-color:#2CD7BE"/>
	<stop  offset="0.651" style="stop-color:#2878DB"/>
	<stop  offset="1" style="stop-color:#2400FF"/>
</linearGradient>
<path class="st3" d="M32.4,11.7c-0.4,0-0.7,0.3-0.7,0.7v15.2c0,0.4,0.3,0.7,0.7,0.7h15.2c0.4,0,0.7-0.3,0.7-0.7V12.4
	c0-0.4-0.3-0.7-0.7-0.7H32.4z M44.2,23.4c0,0.4-0.3,0.7-0.7,0.7h-6.9c-0.4,0-0.7-0.3-0.7-0.7v-6.9c0-0.4,0.3-0.7,0.7-0.7h6.9
	c0.4,0,0.7,0.3,0.7,0.7V23.4z"/>
<linearGradient id="SVGID_4_" gradientUnits="userSpaceOnUse" x1="46.7818" y1="60.7821" x2="46.1" y2="2.1458" gradientTransform="matrix(1 0 0 -1 0 62)">
	<stop  offset="0.1979" style="stop-color:#2CD7BE"/>
	<stop  offset="0.651" style="stop-color:#2878DB"/>
	<stop  offset="1" style="stop-color:#2400FF"/>
</linearGradient>
<path class="st4" d="M47.6,44.9h-2.8c-0.4,0-0.7,0.3-0.7,0.7v2.8c0,0.4,0.3,0.7,0.7,0.7h2.8c0.4,0,0.7-0.3,0.7-0.7v-2.8
	C48.3,45.2,48,44.9,47.6,44.9z"/>
<linearGradient id="SVGID_5_" gradientUnits="userSpaceOnUse" x1="34.1957" y1="60.9285" x2="33.5139" y2="2.2921" gradientTransform="matrix(1 0 0 -1 0 62)">
	<stop  offset="0.1979" style="stop-color:#2CD7BE"/>
	<stop  offset="0.651" style="stop-color:#2878DB"/>
	<stop  offset="1" style="stop-color:#2400FF"/>
</linearGradient>
<path class="st5" d="M35.2,32.4h-2.8c-0.4,0-0.7,0.3-0.7,0.7v2.8c0,0.4,0.3,0.7,0.7,0.7h2.8c0.4,0,0.7-0.3,0.7-0.7v-2.8
	C35.9,32.7,35.6,32.4,35.2,32.4z"/>
<linearGradient id="SVGID_6_" gradientUnits="userSpaceOnUse" x1="38.3911" y1="60.8797" x2="37.7093" y2="2.2433" gradientTransform="matrix(1 0 0 -1 0 62)">
	<stop  offset="0.1979" style="stop-color:#2CD7BE"/>
	<stop  offset="0.651" style="stop-color:#2878DB"/>
	<stop  offset="1" style="stop-color:#2400FF"/>
</linearGradient>
<path class="st6" d="M39.3,36.6h-2.8c-0.4,0-0.7,0.3-0.7,0.7V40c0,0.4,0.3,0.7,0.7,0.7h2.8c0.4,0,0.7-0.3,0.7-0.7v-2.8
	C40,36.9,39.7,36.6,39.3,36.6z"/>
<linearGradient id="SVGID_7_" gradientUnits="userSpaceOnUse" x1="34.2922" y1="60.9273" x2="33.6104" y2="2.291" gradientTransform="matrix(1 0 0 -1 0 62)">
	<stop  offset="0.1979" style="stop-color:#2CD7BE"/>
	<stop  offset="0.651" style="stop-color:#2878DB"/>
	<stop  offset="1" style="stop-color:#2400FF"/>
</linearGradient>
<path class="st7" d="M35.2,40.7h-2.8c-0.4,0-0.7,0.3-0.7,0.7v2.8c0,0.4,0.3,0.7,0.7,0.7h2.8c0.4,0,0.7-0.3,0.7-0.7v-2.8
	C35.9,41,35.6,40.7,35.2,40.7z"/>
<linearGradient id="SVGID_8_" gradientUnits="userSpaceOnUse" x1="38.4875" y1="60.8786" x2="37.8057" y2="2.2422" gradientTransform="matrix(1 0 0 -1 0 62)">
	<stop  offset="0.1979" style="stop-color:#2CD7BE"/>
	<stop  offset="0.651" style="stop-color:#2878DB"/>
	<stop  offset="1" style="stop-color:#2400FF"/>
</linearGradient>
<path class="st8" d="M39.3,44.9h-2.8c-0.4,0-0.7,0.3-0.7,0.7v2.8c0,0.4,0.3,0.7,0.7,0.7h2.8c0.4,0,0.7-0.3,0.7-0.7v-2.8
	C40,45.2,39.7,44.9,39.3,44.9z"/>
<linearGradient id="SVGID_9_" gradientUnits="userSpaceOnUse" x1="42.5864" y1="60.8309" x2="41.9046" y2="2.1946" gradientTransform="matrix(1 0 0 -1 0 62)">
	<stop  offset="0.1979" style="stop-color:#2CD7BE"/>
	<stop  offset="0.651" style="stop-color:#2878DB"/>
	<stop  offset="1" style="stop-color:#2400FF"/>
</linearGradient>
<path class="st9" d="M43.5,40.7h-2.8c-0.4,0-0.7,0.3-0.7,0.7v2.8c0,0.4,0.3,0.7,0.7,0.7h2.8c0.4,0,0.7-0.3,0.7-0.7v-2.8
	C44.2,41,43.9,40.7,43.5,40.7z"/>
<linearGradient id="SVGID_10_" gradientUnits="userSpaceOnUse" x1="42.49" y1="60.832" x2="41.8082" y2="2.1957" gradientTransform="matrix(1 0 0 -1 0 62)">
	<stop  offset="0.1979" style="stop-color:#2CD7BE"/>
	<stop  offset="0.651" style="stop-color:#2878DB"/>
	<stop  offset="1" style="stop-color:#2400FF"/>
</linearGradient>
<path class="st10" d="M43.5,32.4h-2.8c-0.4,0-0.7,0.3-0.7,0.7v2.8c0,0.4,0.3,0.7,0.7,0.7h2.8c0.4,0,0.7-0.3,0.7-0.7v-2.8
	C44.2,32.7,43.9,32.4,43.5,32.4z"/>
<linearGradient id="SVGID_11_" gradientUnits="userSpaceOnUse" x1="46.6854" y1="60.7832" x2="46.0036" y2="2.1469" gradientTransform="matrix(1 0 0 -1 0 62)">
	<stop  offset="0.1979" style="stop-color:#2CD7BE"/>
	<stop  offset="0.651" style="stop-color:#2878DB"/>
	<stop  offset="1" style="stop-color:#2400FF"/>
</linearGradient>
<path class="st11" d="M47.6,36.6h-2.8c-0.4,0-0.7,0.3-0.7,0.7V40c0,0.4,0.3,0.7,0.7,0.7h2.8c0.4,0,0.7-0.3,0.7-0.7v-2.8
	C48.3,36.9,48,36.6,47.6,36.6z"/>
<path class="st12" d="M10,0.5h40c5.2,0,9.5,4.3,9.5,9.5v40c0,5.2-4.3,9.5-9.5,9.5H10c-5.2,0-9.5-4.3-9.5-9.5V10
	C0.5,4.8,4.8,0.5,10,0.5z"/>
</svg>
